incomeartour/img/icons/calendar-sep.svg

<svg width="26" height="26" viewBox="0 0 26 26" fill="none" xmlns="http://www.w3.org/2000/svg">
<g opacity="0.9">
<path d="M22.9557 2.20724H21.273V1.24571C21.273 0.714945 20.8423 0.28418 20.3115 0.28418C19.7807 0.28418 19.35 0.714945 19.35 1.24571V2.20724H5.88856V1.24571C5.88856 0.714945 5.45779 0.28418 4.92703 0.28418C4.39627 0.28418 3.9655 0.714945 3.9655 1.24571V2.20724H2.28282C1.09005 2.20724 0.119385 3.1779 0.119385 4.37068V7.01488H25.1191V4.37068C25.1191 3.1779 24.1485 2.20724 22.9557 2.20724Z" fill="black"/>
<path d="M0.119141 23.1205C0.119141 24.3133 1.0898 25.284 2.28258 25.284H22.9555C24.1482 25.284 25.1189 24.3133 25.1189 23.1205V8.93799H0.119141V23.1205Z" fill="black"/>
<path d="M8.58473 14.406C8.53806 14.3593 8.45137 14.296 8.32468 14.216C8.20465 14.1359 8.05462 14.0593 7.87458 13.9859C7.70122 13.9126 7.51118 13.8492 7.30447 13.7959C7.09776 13.7359 6.88771 13.7059 6.67433 13.7059C6.30092 13.7059 6.01753 13.7759 5.82416 13.9159C5.63745 14.0559 5.5441 14.2526 5.5441 14.506C5.5441 14.6994 5.60411 14.8528 5.72414 14.9661C5.84416 15.0795 6.0242 15.1762 6.26425 15.2562C6.5043 15.3362 6.80436 15.4229 7.16444 15.5162C7.6312 15.6296 8.03462 15.7696 8.37469 15.9363C8.72143 16.0964 8.98482 16.3097 9.16485 16.5765C9.35156 16.8365 9.44491 17.1833 9.44491 17.6167C9.44491 17.9968 9.3749 18.3235 9.23487 18.5969C9.09484 18.8636 8.90147 19.0803 8.65475 19.247C8.40803 19.4137 8.12797 19.5371 7.81457 19.6171C7.50117 19.6904 7.16777 19.7271 6.81436 19.7271C6.46096 19.7271 6.10755 19.6904 5.75414 19.6171C5.40073 19.5437 5.06066 19.4404 4.73393 19.307C4.40719 19.167 4.10713 19.0003 3.83374 18.8069L4.44387 17.6167C4.50388 17.6767 4.61057 17.7567 4.76393 17.8567C4.9173 17.9501 5.10401 18.0468 5.32405 18.1468C5.5441 18.2401 5.78415 18.3202 6.0442 18.3868C6.30426 18.4535 6.56764 18.4869 6.83437 18.4869C7.20778 18.4869 7.49117 18.4235 7.68454 18.2968C7.87792 18.1701 7.97461 17.9901 7.97461 17.7567C7.97461 17.5433 7.89792 17.3766 7.74456 17.2566C7.59119 17.1366 7.37781 17.0332 7.10442 16.9465C6.83103 16.8532 6.50763 16.7532 6.13422 16.6465C5.68746 16.5198 5.31405 16.3798 5.01399 16.2264C4.71392 16.0664 4.49054 15.8663 4.34385 15.6263C4.19715 15.3862 4.1238 15.0861 4.1238 14.7261C4.1238 14.2393 4.23716 13.8326 4.46387 13.5058C4.69725 13.1724 5.01065 12.9224 5.40407 12.7557C5.79748 12.5823 6.23424 12.4956 6.71434 12.4956C7.04775 12.4956 7.36114 12.5323 7.65454 12.6056C7.9546 12.679 8.23466 12.7757 8.49471 12.8957C8.75477 13.0157 8.98815 13.1457 9.19486 13.2858L8.58473 14.406Z" fill="white"/>
<path d="M15.419 18.4368V19.6471H10.4879V12.5456H15.329V13.7559H11.8682V15.4662H14.8589V16.5865H11.8682V18.4368H15.419Z" fill="white"/>
<path d="M16.4951 19.6471V12.5456H19.5057C19.8324 12.5456 20.1325 12.6123 20.4059 12.7457C20.6793 12.879 20.916 13.0591 21.116 13.2858C21.3227 13.5125 21.4828 13.7659 21.5961 14.0459C21.7095 14.326 21.7662 14.6127 21.7662 14.9061C21.7662 15.3062 21.6728 15.6863 21.4861 16.0463C21.2994 16.4064 21.0427 16.6998 20.7159 16.9265C20.3892 17.1532 20.0025 17.2666 19.5557 17.2666H17.8753V19.6471H16.4951ZM17.8753 16.0563H19.4757C19.6424 16.0563 19.7924 16.0097 19.9258 15.9163C20.0591 15.823 20.1658 15.6896 20.2458 15.5162C20.3259 15.3362 20.3659 15.1328 20.3659 14.9061C20.3659 14.6594 20.3192 14.4493 20.2258 14.276C20.1392 14.1026 20.0225 13.9726 19.8758 13.8859C19.7357 13.7992 19.5824 13.7559 19.4157 13.7559H17.8753V16.0563Z" fill="white"/>
</g>
</svg>

<svg width="26" height="26" fill="none" xmlns="http://www.w3.org/2000/svg"><g opacity=".9"><path d="M22.956 2.207h-1.683v-.961a.962.962 0 00-1.923 0v.961H5.889v-.961a.962.962 0 00-1.924 0v.961H2.284c-1.193 0-2.164.97-2.164 2.164v2.644h25V4.37c0-1.193-.97-2.164-2.163-2.164zM.12 23.12c0 1.193.97 2.164 2.163 2.164h20.672c1.193 0 2.164-.97 2.164-2.163V8.938h-25V23.12z" fill="#000"/><path d="M8.585 14.406a1.64 1.64 0 00-.26-.19 2.53 2.53 0 00-.45-.23 4.08 4.08 0 00-.57-.19 2.25 2.25 0 00-.63-.09c-.374 0-.657.07-.85.21a.695.695 0 00-.28.59c0 .193.06.347.18.46.12.114.3.21.54.29.24.08.54.167.9.26.466.114.87.254 1.21.42.346.16.61.374.79.64.187.26.28.607.28 1.04 0 .38-.07.707-.21.98a1.76 1.76 0 01-.58.651c-.247.167-.527.29-.84.37-.314.073-.647.11-1 .11a5.22 5.22 0 01-1.06-.11 5.828 5.828 0 01-1.021-.31 4.882 4.882 0 01-.9-.5l.61-1.19c.06.06.167.14.32.24.153.093.34.19.56.29.22.093.46.173.72.24.26.066.524.1.79.1.374 0 .657-.063.85-.19a.609.609 0 00.29-.54.6.6 0 00-.23-.5 2.045 2.045 0 00-.64-.31 20.421 20.421 0 00-.97-.3 6.21 6.21 0 01-1.12-.42c-.3-.16-.523-.36-.67-.6-.147-.24-.22-.54-.22-.9 0-.488.113-.894.34-1.221.233-.334.547-.584.94-.75.393-.174.83-.26 1.31-.26.334 0 .647.036.94.11.3.073.58.17.84.29.26.12.494.25.7.39l-.61 1.12zm6.834 4.031v1.21h-4.931v-7.101h4.841v1.21h-3.46v1.71h2.99v1.12h-2.99v1.85h3.55zm1.076 1.21v-7.101h3.01c.327 0 .628.066.9.2.274.133.511.313.711.54.207.226.367.48.48.76.113.28.17.567.17.86 0 .4-.093.78-.28 1.14a2.39 2.39 0 01-.77.88c-.327.227-.713.34-1.16.34h-1.68v2.381h-1.38zm1.38-3.59h1.6a.766.766 0 00.45-.14.97.97 0 00.32-.4c.08-.18.12-.384.12-.61 0-.248-.046-.458-.14-.631a.91.91 0 00-.35-.39.857.857 0 00-.46-.13h-1.54v2.3z" fill="#fff"/></g></svg>
